build/img/icons/svg/wallet.svg

<svg xmlns="http://www.w3.org/2000/svg" viewBox="0 0 24.21 22.72"><g data-name="Layer 2"><g data-name="Layer 3"><path d="M23.62 4H4a.5.5 0 0 1-.5-.5A.5.5 0 0 1 4 3h19.62a.5.5 0 0 1 .5.5.5.5 0 0 1-.5.5zM21.77 22.72H2.44A2.45 2.45 0 0 1 0 20.27V7.63a2.44 2.44 0 0 1 2.44-2.44h19.33a2.44 2.44 0 0 1 2.44 2.44v12.64a2.45 2.45 0 0 1-2.44 2.45zM2.44 7.19a.44.44 0 0 0-.44.44v12.64a.45.45 0 0 0 .44.45h19.33a.45.45 0 0 0 .44-.45V7.63a.44.44 0 0 0-.44-.44z"/><path d="M23.21 8.93a1 1 0 0 1-1-1V2.44a.44.44 0 0 0-.44-.44H2.44a.44.44 0 0 0-.44.44v5.49a1 1 0 0 1-2 0V2.44A2.45 2.45 0 0 1 2.44 0h19.33a2.45 2.45 0 0 1 2.44 2.44v5.49a1 1 0 0 1-1 1zM22.87 17.37h-5A2.38 2.38 0 0 1 15.54 15v-2.09a2.37 2.37 0 0 1 2.37-2.37h5a1 1 0 0 1 0 2h-5a.36.36 0 0 0-.37.37V15a.37.37 0 0 0 .37.38h5a1 1 0 0 1 0 2z"/></g></g></svg>

<svg xmlns="http://www.w3.org/2000/svg" viewBox="0 0 24.21 22.72"><title>ic_Hard Wallet</title><g id="Layer_2" data-name="Layer 2"><g id="Layer_3" data-name="Layer 3"><path d="M23.62,4H4a.5.5,0,0,1-.5-.5A.5.5,0,0,1,4,3H23.62a.5.5,0,0,1,.5.5.5.5,0,0,1-.5.5Z"/><path d="M21.77,22.72H2.44A2.45,2.45,0,0,1,0,20.27V7.63A2.44,2.44,0,0,1,2.44,5.19H21.77a2.44,2.44,0,0,1,2.44,2.44V20.27a2.45,2.45,0,0,1-2.44,2.45ZM2.44,7.19A.44.44,0,0,0,2,7.63V20.27a.45.45,0,0,0,.44.45H21.77a.45.45,0,0,0,.44-.45V7.63a.44.44,0,0,0-.44-.44Z"/><path d="M23.21,8.93a1,1,0,0,1-1-1V2.44A.44.44,0,0,0,21.77,2H2.44A.44.44,0,0,0,2,2.44V7.93a1,1,0,0,1-2,0V2.44A2.45,2.45,0,0,1,2.44,0H21.77a2.45,2.45,0,0,1,2.44,2.44V7.93a1,1,0,0,1-1,1Z"/><path d="M22.87,17.37h-5A2.38,2.38,0,0,1,15.54,15V12.91a2.37,2.37,0,0,1,2.37-2.37h5a1,1,0,0,1,0,2h-5a.36.36,0,0,0-.37.37V15a.37.37,0,0,0,.37.38h5a1,1,0,0,1,0,2Z"/></g></g></svg>
